X: 34767
T: Road To Ness, The
R: jig
M: 6/8
K: Dmajor
|:agf gfe|fed efg|agf gfe|fed B2A|
agf gfe|fed efg|aba f2e|fed B2A:|
|:d2d efe|dfd efe|d2d efe|dfd B2A|
d2d efe|dfd fga|aba f2e|fed B2A:|

